assets/Window/Flat/window_flat.svg

<svg width="32" height="32" viewBox="0 0 32 32" fill="none" xmlns="http://www.w3.org/2000/svg">
<path d="M2 6C2 3.79086 3.79086 2 6 2H26C28.2091 2 30 3.79086 30 6V26C30 28.2091 28.2091 30 26 30H6C3.79086 30 2 28.2091 2 26V6Z" fill="#D3D3D3"/>
<path d="M14.8535 17.1464L8 20L5.43933 26.5607C5.71078 26.8321 6.08578 27 6.49999 27H14.5C14.7761 27 15 26.7761 15 26.5V17.5C15 17.3619 14.944 17.2369 14.8535 17.1464Z" fill="#83CBFF"/>
<path d="M17.5 27H25.5C26.3284 27 27 26.3284 27 25.5V17.5C27 17.2238 26.7761 17 26.5 17H17.5C17.2238 17 17 17.2238 17 17.5V26.5C17 26.7761 17.2238 27 17.5 27Z" fill="#83CBFF"/>
<path d="M27 14.5V6.49999C27 6.08578 26.8321 5.71078 26.5606 5.43933L19 8L17.1464 14.8535C17.2369 14.944 17.3619 15 17.5 15H26.5C26.7761 15 27 14.7761 27 14.5Z" fill="#83CBFF"/>
<path d="M5 6.5C5 5.67157 5.67157 5 6.5 5H14.5C14.7761 5 15 5.22386 15 5.5V14.5C15 14.7761 14.7761 15 14.5 15H5.5C5.22386 15 5 14.7761 5 14.5V6.5Z" fill="#00A6ED"/>
<path d="M5 17.5C5 17.2239 5.22386 17 5.5 17H14.5C14.6381 17 14.7631 17.056 14.8536 17.1464L5.43934 26.5607C5.16789 26.2892 5 25.9142 5 25.5V17.5Z" fill="#00A6ED"/>
<path d="M26.5607 5.43934C26.2892 5.16789 25.9142 5 25.5 5H17.5C17.2239 5 17 5.22386 17 5.5V14.5C17 14.6381 17.056 14.7631 17.1464 14.8536L26.5607 5.43934Z" fill="#00A6ED"/>
</svg>

<svg xmlns="http://www.w3.org/2000/svg" width="32" height="32" fill="none"><path fill="#D3D3D3" d="M2 6a4 4 0 0 1 4-4h20a4 4 0 0 1 4 4v20a4 4 0 0 1-4 4H6a4 4 0 0 1-4-4V6Z"/><path fill="#83CBFF" d="M14.854 17.146 8 20l-2.56 6.56c.27.272.646.44 1.06.44h8a.5.5 0 0 0 .5-.5v-9a.498.498 0 0 0-.146-.354ZM17.5 27h8a1.5 1.5 0 0 0 1.5-1.5v-8a.5.5 0 0 0-.5-.5h-9a.5.5 0 0 0-.5.5v9a.5.5 0 0 0 .5.5ZM27 14.5v-8c0-.414-.168-.79-.44-1.06L19 8l-1.854 6.854c.09.09.216.146.354.146h9a.5.5 0 0 0 .5-.5Z"/><path fill="#00A6ED" d="M5 6.5A1.5 1.5 0 0 1 6.5 5h8a.5.5 0 0 1 .5.5v9a.5.5 0 0 1-.5.5h-9a.5.5 0 0 1-.5-.5v-8ZM5 17.5a.5.5 0 0 1 .5-.5h9c.138 0 .263.056.354.146l-9.415 9.415A1.496 1.496 0 0 1 5 25.5v-8ZM26.56 5.44A1.496 1.496 0 0 0 25.5 5h-8a.5.5 0 0 0-.5.5v9c0 .138.056.263.146.354l9.415-9.415Z"/></svg>
